X: 1
T: O Sole Mio
C: E. di Capua
N: Words by G. Capurro
Z: John Chambers <jc@trillian.mit.edu>
M: 2/4
L: 1/8
K: G
| "G"zd cB | A2 G2 | GA BG | "Am"F2 E2- \
| EF GA | "D7"FE E2- | EF GA | "G"ED D2 |
| "G"zd cB | A2 G2 | GA BG | "Am"{G}F2 E2- \
| Ec BA | "G"dB AG | "D7"A3 B | "G"A{BA}G3 ||
|| zg gf | "G"{f}d2 d2- | df fe | "Am"{e}c4- \
| cf fe | "Am"{e}c2 c2- | "D7"cA Bc | "G"d4 |
| z3 d | "Cm"_e4- | ec g>_e | "G"d2 d2- | dB AG \
| "D7"d4- | dB {AB}A>F | "G"G4 :|
